X:220
T: Sally Gardens [The]
M: 4/4
L: 1/8
R: Reel
K: G
DE|G2 DG BAGB|dBeB dBAB|d2 Bd edge|dBAB GEDE|
G2 DG BAGB|dBeB dBAB|d2 Bd edge|dBAB G2 :|
Bc|dggf g2 df|g2 bg aged|eaag a2 ea|agbg ageg|
dggf g2 df|g2 bg ageg|d2 Bd edge|dBAB G2 :|
